X: 488
T:Teen
O:Armenia
M:2/4
L:1/8
Q:1/4=180
K:DMix
|:B,CDz|.D2.D2|.D2.E2|=F4 |E=FG2|G2E2|D4  |E2D2|
E=FG2|G2E2  |D4    |E2D2|EDED |EDED|E2D2|D4 :|



